images/portal/4871.svg

<?xml version="1.0" standalone="no"?><!DOCTYPE svg PUBLIC "-//W3C//DTD SVG 1.1//EN" "http://www.w3.org/Graphics/SVG/1.1/DTD/svg11.dtd"><svg xmlns:xlink="http://www.w3.org/1999/xlink" version="1.1" class="highcharts-root" style="font-family:arial;font-size:12px;" xmlns="http://www.w3.org/2000/svg" width="485" height="415"><desc>Created with Highstock 5.0.14</desc><defs><clipPath id="highcharts-c1uiwep-6"><rect x="0" y="0" width="428" height="275" fill="none"></rect></clipPath><clipPath id="highcharts-c1uiwep-7"><rect x="0" y="0" width="428" height="275" fill="none"></rect></clipPath></defs><rect fill="#fbfbfb" class="highcharts-background" x="0" y="0" width="485" height="415" rx="0" ry="0"></rect><rect fill="none" class="highcharts-plot-background" x="47" y="75" width="428" height="275"></rect><g class="highcharts-pane-group"></g><g class="highcharts-grid highcharts-xaxis-grid "><path fill="none" class="highcharts-grid-line" d="M 132.5 75 L 132.5 350" opacity="1"></path><path fill="none" class="highcharts-grid-line" d="M 217.5 75 L 217.5 350" opacity="1"></path><path fill="none" class="highcharts-grid-line" d="M 303.5 75 L 303.5 350" opacity="1"></path><path fill="none" class="highcharts-grid-line" d="M 388.5 75 L 388.5 350" opacity="1"></path><path fill="none" class="highcharts-grid-line" d="M 474.5 75 L 474.5 350" opacity="1"></path><path fill="none" class="highcharts-grid-line" d="M 46.5 75 L 46.5 350" opacity="1"></path></g><g class="highcharts-grid highcharts-yaxis-grid "><path fill="none" stroke="#B9CFD7" stroke-width="0.5" class="highcharts-grid-line" d="M 47 350.25 L 475 350.25" opacity="1"></path><path fill="none" stroke="#B9CFD7" stroke-width="0.5" class="highcharts-grid-line" d="M 47 258.25 L 475 258.25" opacity="1"></path><path fill="none" stroke="#B9CFD7" stroke-width="0.5" class="highcharts-grid-line" d="M 47 167.25 L 475 167.25" opacity="1"></path><path fill="none" stroke="#B9CFD7" stroke-width="0.5" class="highcharts-grid-line" d="M 47 74.75 L 475 74.75" opacity="1"></path></g><rect fill="none" class="highcharts-plot-border" x="47" y="75" width="428" height="275"></rect><g class="highcharts-axis highcharts-xaxis "><path fill="none" class="highcharts-tick" stroke="#FFFFFF" stroke-width="1" d="M 132.5 350 L 132.5 360" opacity="1"></path><path fill="none" class="highcharts-tick" stroke="#FFFFFF" stroke-width="1" d="M 217.5 350 L 217.5 360" opacity="1"></path><path fill="none" class="highcharts-tick" stroke="#FFFFFF" stroke-width="1" d="M 303.5 350 L 303.5 360" opacity="1"></path><path fill="none" class="highcharts-tick" stroke="#FFFFFF" stroke-width="1" d="M 388.5 350 L 388.5 360" opacity="1"></path><path fill="none" class="highcharts-tick" stroke="#FFFFFF" stroke-width="1" d="M 475.5 350 L 475.5 360" opacity="1"></path><path fill="none" class="highcharts-tick" stroke="#FFFFFF" stroke-width="1" d="M 46.5 350 L 46.5 360" opacity="1"></path><path fill="none" class="highcharts-axis-line" stroke="#B9CFD7" stroke-width="0.5" d="M 47 350.25 L 475 350.25"></path></g><g class="highcharts-axis highcharts-yaxis "><path fill="none" class="highcharts-axis-line" d="M 47 75 L 47 350"></path></g><g class="highcharts-series-group"><g class="highcharts-series highcharts-series-0 highcharts-column-series highcharts-color-undefined " transform="translate(47,75) scale(1 1)" clip-path="url(#highcharts-c1uiwep-7)"><rect x="22" y="36" width="42" height="240" fill="#0070C0" class="highcharts-point"></rect><rect x="108" y="97" width="42" height="179" fill="#0070C0" class="highcharts-point"></rect><rect x="193" y="45" width="42" height="231" fill="#0070C0" class="highcharts-point"></rect><rect x="279" y="85" width="42" height="191" fill="#0070C0" class="highcharts-point"></rect><rect x="365" y="45" width="42" height="231" fill="#0070C0" class="highcharts-point"></rect></g><g class="highcharts-markers highcharts-series-0 highcharts-column-series highcharts-color-undefined " transform="translate(47,75) scale(1 1)" clip-path="none"></g></g><text x="10" text-anchor="start" class="highcharts-title" style="color:#000000;font-size:14px;font-weight:bold;fill:#000000;" y="21"><tspan>Wahlbeteiligung bei National- und Grossratswahlen</tspan></text><g class="highcharts-data-labels highcharts-series-0 highcharts-column-series highcharts-color-undefined " visibility="visible" transform="translate(47,75) scale(1 1)"><g class="highcharts-label highcharts-data-label highcharts-data-label-color-undefined " transform="translate(24,13)"><text x="5" style="font-size:10px;font-weight:bold;color:#000000;fill:#000000;" y="15"><tspan x="5" y="15" class="highcharts-text-outline" fill="#FFFFFF" stroke="#FFFFFF" stroke-width="2px" stroke-linejoin="round" style="">52.4%</tspan><tspan x="5" y="15">52.4%</tspan></text></g><g class="highcharts-label highcharts-data-label highcharts-data-label-color-undefined " transform="translate(110,74)"><text x="5" style="font-size:10px;font-weight:bold;color:#000000;fill:#000000;" y="15"><tspan x="5" y="15" class="highcharts-text-outline" fill="#FFFFFF" stroke="#FFFFFF" stroke-width="2px" stroke-linejoin="round">39.0%</tspan><tspan x="5" y="15">39.0%</tspan></text></g><g class="highcharts-label highcharts-data-label highcharts-data-label-color-undefined " transform="translate(195,22)"><text x="5" style="font-size:10px;font-weight:bold;color:#000000;fill:#000000;" y="15"><tspan x="5" y="15" class="highcharts-text-outline" fill="#FFFFFF" stroke="#FFFFFF" stroke-width="2px" stroke-linejoin="round">50.3%</tspan><tspan x="5" y="15">50.3%</tspan></text></g><g class="highcharts-label highcharts-data-label highcharts-data-label-color-undefined " transform="translate(281,62)"><text x="5" style="font-size:10px;font-weight:bold;color:#000000;fill:#000000;" y="15"><tspan x="5" y="15" class="highcharts-text-outline" fill="#FFFFFF" stroke="#FFFFFF" stroke-width="2px" stroke-linejoin="round">41.6%</tspan><tspan x="5" y="15">41.6%</tspan></text></g><g class="highcharts-label highcharts-data-label highcharts-data-label-color-undefined " transform="translate(367,22)"><text x="5" style="font-size:10px;font-weight:bold;color:#000000;fill:#000000;" y="15"><tspan x="5" y="15" class="highcharts-text-outline" fill="#FFFFFF" stroke="#FFFFFF" stroke-width="2px" stroke-linejoin="round">50.4%</tspan><tspan x="5" y="15">50.4%</tspan></text></g></g><g class="highcharts-axis-labels highcharts-xaxis-labels "><text x="89.8" style="color:#000000;cursor:default;font-size:11px;fill:#000000;" text-anchor="middle" transform="translate(0,0)" y="369" opacity="1"><tspan>2007 (NR)</tspan></text><text x="175.39999999999998" style="color:#000000;cursor:default;font-size:11px;fill:#000000;" text-anchor="middle" transform="translate(0,0)" y="369" opacity="1"><tspan>2008 (GR)</tspan></text><text x="261" style="color:#000000;cursor:default;font-size:11px;fill:#000000;" text-anchor="middle" transform="translate(0,0)" y="369" opacity="1"><tspan>2011 (NR)</tspan></text><text x="346.59999999999997" style="color:#000000;cursor:default;font-size:11px;fill:#000000;" text-anchor="middle" transform="translate(0,0)" y="369" opacity="1"><tspan>2012 (GR)</tspan></text><text x="432.2" style="color:#000000;cursor:default;font-size:11px;fill:#000000;" text-anchor="middle" transform="translate(0,0)" y="369" opacity="1"><tspan>2015 (NR)</tspan></text></g><g class="highcharts-axis-labels highcharts-yaxis-labels "><text x="32" style="color:#000000;cursor:default;font-size:11px;fill:#000000;" text-anchor="end" transform="translate(0,0)" y="355" opacity="1"><tspan>0%</tspan></text><text x="32" style="color:#000000;cursor:default;font-size:11px;fill:#000000;" text-anchor="end" transform="translate(0,0)" y="263" opacity="1"><tspan>20%</tspan></text><text x="32" style="color:#000000;cursor:default;font-size:11px;fill:#000000;" text-anchor="end" transform="translate(0,0)" y="171" opacity="1"><tspan>40%</tspan></text><text x="32" style="color:#000000;cursor:default;font-size:11px;fill:#000000;" text-anchor="end" transform="translate(0,0)" y="80" opacity="1"><tspan>60%</tspan></text></g><text x="10" class="highcharts-credits" text-anchor="start" style="cursor:default;color:#000000;font-size:10px;fill:#000000;" y="400"><tspan>Quelle: Statistisches Amt Basel-Stadt</tspan></text></svg>

<svg class="highcharts-root" xmlns="http://www.w3.org/2000/svg" width="485" height="415" font-family="arial" font-size="12">
    <defs>
        <clipPath id="a">
            <path fill="none" d="M0 0h428v275H0z"/>
        </clipPath>
    </defs>
    <rect fill="#fbfbfb" class="highcharts-background" width="485" height="415" rx="0" ry="0"/>
    <path fill="none" class="highcharts-plot-background" d="M47 75h428v275H47z"/>
    <g class="highcharts-grid highcharts-xaxis-grid">
        <path fill="none" class="highcharts-grid-line" d="M132.5 75v275m85-275v275m86-275v275m85-275v275m86-275v275M46.5 75v275"/>
    </g>
    <g class="highcharts-grid highcharts-yaxis-grid">
        <path fill="none" stroke="#B9CFD7" stroke-width=".5" class="highcharts-grid-line" d="M47 350.25h428m-428-92h428m-428-91h428M47 74.75h428"/>
    </g>
    <path fill="none" class="highcharts-plot-border" d="M47 75h428v275H47z"/>
    <g class="highcharts-axis highcharts-xaxis">
        <path fill="none" class="highcharts-tick" stroke="#FFF" d="M132.5 350v10m85-10v10m86-10v10m85-10v10m87-10v10m-429-10v10"/>
        <path fill="none" class="highcharts-axis-line" stroke="#B9CFD7" stroke-width=".5" d="M47 350.25h428"/>
    </g>
    <g class="highcharts-axis highcharts-yaxis">
        <path fill="none" class="highcharts-axis-line" d="M47 75v275"/>
    </g>
    <g class="highcharts-series-group">
        <g class="highcharts-series highcharts-series-0 highcharts-column-series highcharts-color-undefined" transform="translate(47 75)" clip-path="url(#a)">
            <path fill="#0070C0" class="highcharts-point" d="M22 36h42v240H22zm86 61h42v179h-42zm85-52h42v231h-42zm86 40h42v191h-42zm86-40h42v231h-42z"/>
        </g>
    </g>
    <text x="10" class="highcharts-title" y="21" color="#000" font-size="14" font-weight="700">
        <tspan>Wahlbeteiligung bei National- und Grossratswahlen</tspan>
    </text>
    <g class="highcharts-data-labels highcharts-series-0 highcharts-column-series highcharts-color-undefined">
        <text x="5" y="15" font-size="10" font-weight="700" color="#000" transform="translate(71 88)" class="highcharts-label highcharts-data-label highcharts-data-label-color-undefined">
            <tspan x="5" y="15" class="highcharts-text-outline" fill="#FFF" stroke="#FFF" stroke-width="2" stroke-linejoin="round">52.4%</tspan><tspan x="5" y="15">52.4%</tspan>
        </text>
        <text x="5" y="15" font-size="10" font-weight="700" color="#000" transform="translate(157 149)" class="highcharts-label highcharts-data-label highcharts-data-label-color-undefined">
            <tspan x="5" y="15" class="highcharts-text-outline" fill="#FFF" stroke="#FFF" stroke-width="2" stroke-linejoin="round">39.0%</tspan><tspan x="5" y="15">39.0%</tspan>
        </text>
        <text x="5" y="15" font-size="10" font-weight="700" color="#000" transform="translate(242 97)" class="highcharts-label highcharts-data-label highcharts-data-label-color-undefined">
            <tspan x="5" y="15" class="highcharts-text-outline" fill="#FFF" stroke="#FFF" stroke-width="2" stroke-linejoin="round">50.3%</tspan><tspan x="5" y="15">50.3%</tspan>
        </text>
        <text x="5" y="15" font-size="10" font-weight="700" color="#000" transform="translate(328 137)" class="highcharts-label highcharts-data-label highcharts-data-label-color-undefined">
            <tspan x="5" y="15" class="highcharts-text-outline" fill="#FFF" stroke="#FFF" stroke-width="2" stroke-linejoin="round">41.6%</tspan><tspan x="5" y="15">41.6%</tspan>
        </text>
        <text x="5" y="15" font-size="10" font-weight="700" color="#000" transform="translate(414 97)" class="highcharts-label highcharts-data-label highcharts-data-label-color-undefined">
            <tspan x="5" y="15" class="highcharts-text-outline" fill="#FFF" stroke="#FFF" stroke-width="2" stroke-linejoin="round">50.4%</tspan><tspan x="5" y="15">50.4%</tspan>
        </text>
    </g>
    <g class="highcharts-axis-labels highcharts-xaxis-labels" text-anchor="middle" color="#000" cursor="default" font-size="11">
        <text x="89.8" y="369">
            <tspan>2007 (NR)</tspan>
        </text>
        <text x="175.4" y="369">
            <tspan>2008 (GR)</tspan>
        </text>
        <text x="261" y="369">
            <tspan>2011 (NR)</tspan>
        </text>
        <text x="346.6" y="369">
            <tspan>2012 (GR)</tspan>
        </text>
        <text x="432.2" y="369">
            <tspan>2015 (NR)</tspan>
        </text>
    </g>
    <g class="highcharts-axis-labels highcharts-yaxis-labels" text-anchor="end" color="#000" cursor="default" font-size="11">
        <text x="32" y="355">
            <tspan>0%</tspan>
        </text>
        <text x="32" y="263">
            <tspan>20%</tspan>
        </text>
        <text x="32" y="171">
            <tspan>40%</tspan>
        </text>
        <text x="32" y="80">
            <tspan>60%</tspan>
        </text>
    </g>
    <text x="10" class="highcharts-credits" y="400" cursor="default" color="#000" font-size="10">
        <tspan>Quelle: Statistisches Amt Basel-Stadt</tspan>
    </text>
</svg>
